X: 198
T: No_56_Cow_Creek_Hunting_Dance_Song_(w).krn
N: Derived from No_56_Cow_Creek_Hunting_Dance_Song_(w).krn
%%abc-version 2.0
%%abcx-abcm2ps-target-version 5.9.1 (29 Sep 2008)
%%abc-creator hum2abc beta
%%abcx-conversion-date 2019/03/15 08:38:45
%%humdrum-veritas 3686709956
%%humdrum-veritas-data 60470731
%%linebreak <none>
%%barnumbers 0
L: 1/8
M: 3/4
K: Bb clef=bass
[K:clef=bass][M:3/4]G,3/B,/B,2z2 ||  
[M:2/4]G,3/B,/B,2 | 
C3/B,/ G,F,/ z/ | 
(3F,F,F,F,2 | 
G,/F,3/ G,/F,3/ | 
G,/F,3/ D,/F,3/ | 
G,/F,D,/F,2 | 
G,/F,D,/F,2 | 
G,3/B,/B,2 | 
G,3/B,/B,2 | 
C3/B,/ G,F,/ z/ | 
(3F,F,F,F,2 |]  



